X:399
T:Grand March. RH.399
R:march
S:Rev.R.Harrison’s MS,c1815,Cumbria
N:I doubled the length of the last note. PJH.
O:England
A:Temple Sowerby,Cumbria
Z:vmp.Simon Wilson. Review PJH, 2008.
M:C
L:1/8
Q:2/4=70
K:D
A>A|d2d>de2e>e|f2fg bagf|\
e3f/g/f2e2|d2d>dd2f>f|!
e2aa (bc’).d’.d’|.d’.c’.c’.c’ (d’e’).f’.f’|\
.f’.e’.d’.c’ (e’d’).c’.b|a2a>aa2:|!
|e>e|dcBA d2ed/e/|f2g(f/g/) ad|\
a/g/ z(g/f/) z(f/e/) z(e/d/)z|((3cde) ((3dcB) Aa/a/ a>a|!
a2d’>d’ c’a/a/ a>a|a2d’>d’ c’a/a/ a>a|\
b3gf2e2|d2d>dd2e>e|!
dcBAd2ed/e/|f2gf/g/a2d2|\
a/g/ zg/f/ zf/e/ ze/d/z|((3cde) ((3dcB) Aa/a/ a>a|!
a2d’>d’ c’a/a/ a>a|a2d’>d’ c’a/a/ a>a|\
b3gf2e2|d2d’d’d’2|]

